actions/24/format-text-superscript.svg

<?xml version="1.0" encoding="UTF-8" standalone="no"?>
<svg
   width="24"
   height="24"
   version="1.1"
   id="svg9"
   sodipodi:docname="format-text-superscript.svg"
   inkscape:version="1.1.2 (0a00cf5339, 2022-02-04)"
   xmlns:inkscape="http://www.inkscape.org/namespaces/inkscape"
   xmlns:sodipodi="http://sodipodi.sourceforge.net/DTD/sodipodi-0.dtd"
   xmlns="http://www.w3.org/2000/svg"
   xmlns:svg="http://www.w3.org/2000/svg">
  <sodipodi:namedview
     id="namedview11"
     pagecolor="#000000"
     bordercolor="#666666"
     borderopacity="1.0"
     inkscape:pageshadow="2"
     inkscape:pageopacity="0"
     inkscape:pagecheckerboard="0"
     showgrid="false"
     inkscape:zoom="28.416667"
     inkscape:cx="11.982405"
     inkscape:cy="11.964809"
     inkscape:window-width="1596"
     inkscape:window-height="967"
     inkscape:window-x="0"
     inkscape:window-y="29"
     inkscape:window-maximized="1"
     inkscape:current-layer="g7" />
  <defs
     id="defs3">
    <style
       id="current-color-scheme"
       type="text/css">
   .ColorScheme-Text { color:#eeeeec; } .ColorScheme-Highlight { color:#367bf0; } .ColorScheme-NeutralText { color:#ffcc44; } .ColorScheme-PositiveText { color:#3db47e; } .ColorScheme-NegativeText { color:#dd4747; }
  </style>
  </defs>
  <g
     transform="translate(4,4)"
     id="g7">
    <path
       style="fill:currentColor"
       class="ColorScheme-Text"
       d="m 11,0 v 6 h 3 C 16,6 16,4 16,4 16,4 16,2.709 14.828,2.184 14.828,2.184 15,2 15,1.5 15,1.5 15,0 13.5,0 Z m 1,1 h 1.5 C 14,1 14,1.5 14,1.5 14,1.5 14,2 13.5,2 H 12 Z m 0,2 h 2 c 1,0 1,1 1,1 0,0 0,1 -1,1 H 12 Z M 7,1 2,15 h 2.5 l 1.0625,-3 h 4.8755 l 1.062,3 h 2.75 L 9,1 Z m 1.2556213,4.7303465 v 0 L 9.51671,9.3334571 9.1681957,10 v 0 L 6.8457654,10 6.4771445,9.3510156 v 0 L 7.7272277,5.7793493 Z"
       id="path5"
       sodipodi:nodetypes="ccscccsccscscccscsccccccccccccccccccccc" />
  </g>
</svg>

<svg xmlns="http://www.w3.org/2000/svg" width="24" height="24" version="1.1">
 <defs>
  <style id="current-color-scheme" type="text/css">
   .ColorScheme-Text { color:#eeeeec; } .ColorScheme-Highlight { color:#367bf0; } .ColorScheme-NeutralText { color:#ffcc44; } .ColorScheme-PositiveText { color:#3db47e; } .ColorScheme-NegativeText { color:#dd4747; }
  </style>
 </defs>
 <g transform="translate(4,4)">
  <path style="fill:currentColor" class="ColorScheme-Text" d="M 11,0 V 6 H 14 C 16,6 16,4 16,4 16,4 16,2.709 14.828,2.184 14.828,2.184 15,2 15,1.5 15,1.5 15,0 13.5,0 Z M 12,1 H 13.5 C 14,1 14,1.5 14,1.5 14,1.5 14,2 13.5,2 H 12 Z M 12,3 H 14 C 15,3 15,4 15,4 15,4 15,5 14,5 H 12 Z M 7,1 2,15 H 4.5 L 5.5625,12 H 10.438 L 11.5,15 H 14.25 L 9,1 Z M 8,5 9.75,10 H 6.25 Z"/>
 </g>
</svg>
